X:13047
T:Morgan Rattler
R:Jig
C:Trad.
O:England
Z:Paul Hardy's Session Tunebook 2015 (see www.paulhardy.net). Creative Commons cc by-nc-sa licenced.
M:6/8
L:1/8
Q:3/8=100
K:D
"A"AFE EFG|"D"FEF D2B|"A"AFE EFG|"G"B2A Bcd|"A"AFE EFG|"D"FEF D2A|"G"dcB "A"edc|"G"B2A Bcd:|
|:"D"d2d fed|"A"cAc edc|"D"d2d fed|f2e fga|d2e f2g|"A"agf edc|"G"dcB "A"edc|"G"B2A Bcd:|
|:"D"D2d dcd|"Em"E2e ede|"D"D2d dcd|"G"B2A Bcd|"D"D2d dcd|"Em"E2e efg|"A"agf edc|"G"B2A Bcd:|"D"D3||

